X:1
T:Sailors Allegory, The TS.200
T:Sailors Allegory, The TS.200
T:George Saville Carey 1743-1807
C:George Saville Carey 1743-1807
L:1/8
Q:1/4=120
M:2/2
K:D
V:1 treble 
V:1
 A2 Bc | d2 d2 (dc) (BA) | d2 d2 F2 F2 | G2 (FG) A2 A2 | D4 A2 Bc | d2 d2 (ed) (cB) | %6
w: Life's like a|ship in con- stant mo- tion,|Some- times high a-|nd some- times low. *|* Where ev'- ry-|one must br- ave th- e|
 (cd) e2 c2 c2 | d2 (cd) e2 E2 A4 A2 dc | B2 A2 G2 F2"^bar line added" | GA/B/ A2 B2 c2 | %10
w: o- cean, What- so- ev-|er winds may blow. * * If un- ass-|ail'd by squall or|show- er, waft- ed by the|
 d2 e2 (fd) (af) |{!fermata!f} !fermata!e4 (ge) (fd){d} | c2 (BA) (ge) (fd) |{d} c4 A2 (Bc) | %14
w: gen- tle gales * * *|* Le- t's n- ot|lose th- e f- av' r- ing|hour, Whilst s- uc-|
 d2 f2 e2 a2 | d4 |] %16
w: cess at- tend our|sails.|

